X:1
T:Bovey, 886 D
T:Bovey, 886 D
T:Samuel Sebastien Wesley, 1864
T:Public Domain Courtesy of the Cyber Hymnal™
C:Samuel Sebastien Wesley, 1864
Z:Public Domain
Z:Courtesy of the Cyber Hymnal™
%%score ( 1 2 ) ( 3 4 )
L:1/8
Q:1/4=106
M:4/4
K:D
V:1 treble 
V:2 treble 
V:3 bass 
V:4 bass 
V:1
 ([DF][EG]) | [FA]2 (Bc) [Fd]2 [Ee]2 | [Fd]2 [Ec]2 [Fd]2 [Fd]2 | [Fc]2 [DB]2 [DA]2 [DB]2 | %4
 [FA]2 [EG]2 [DF]2 E2 | (FG) ([CA][DB]) [Ec]2 B2 | [CA]6 [EA]2 | [Ee]2 (dc) [Dd]2 D2 | %8
 [DE]2 [DF]2 [DG]2 [B,D]2 | [=CE]2 [CF]2 [B,G]2 [^DF]2 | [EG]2 [FA]2 [GB]2 [Gc]2 | %11
 [Fd]2 [Ee]2 [Fd]2 [Ec]2 | [Fd]6 |] %13
V:2
 x2 | x2 F2 x4 | x8 | x8 | x6 E2 | D2 x3 (ED) x | x8 | x2 E2 x D2 x | x8 | x8 | x8 | x8 | x6 |] %13
V:3
 [D,D]2 | [D,D]2 [C,E]2 [B,,D]2 [G,,B,]2 | [A,,A,]2 [A,,A,]2 [D,A,]2 [B,,B,]2 | %3
 [F,A,]2 G,2 [F,A,]2 [G,D]2 | [A,D]2 (DC) [D,D]2 [C,A,]2 | ([D,D][E,B,]) [F,A,]2 [E,A,]2 [E,^G,]2 | %6
 A,6 [A,C]2 | [A,C]2 [G,A,]2 [F,A,]2 [D,F,]2 | [D,G,]2 [=C,A,]2 [B,,G,]2 [G,,G,]2 | %9
 [=C,G,]2 [A,,A,]2 [E,G,]2 [B,,B,]2 | [E,B,]2 [D,D]2 [G,D]2 [E,E]2 | [B,D]2 [G,B,]2 A,2 [A,,A,]2 | %12
 [D,A,]6 |] %13
V:4
 x2 | x8 | x8 | x2 G,2 x4 | x2 A,,2 x4 | x8 | A,6 x2 | x8 | x8 | x8 | x8 | x4 A,2 x2 | x6 |] %13

